public/static/ecodesign-addon-logo.svg

<?xml version="1.0" encoding="utf-8"?>
<!-- Generator: Adobe Illustrator 26.1.0, SVG Export Plug-In . SVG Version: 6.00 Build 0)  -->
<svg version="1.1" id="Calque_1" xmlns="http://www.w3.org/2000/svg" xmlns:xlink="http://www.w3.org/1999/xlink" x="0px" y="0px"
	 viewBox="0 0 16 16" style="enable-background:new 0 0 16 16;" xml:space="preserve">
<style type="text/css">
	.st0{fill:#000091;}
</style>
<g>
	<path class="st0" d="M15.7,0.8c-0.1-0.3-0.3-0.5-0.5-0.5C14.9,0.2,8.4-1.1,4.6,2.7C1.3,6,1.9,11.4,2.1,12.9l-1.9,1.9
		c-0.3,0.3-0.3,0.7,0,1C0.3,15.9,0.5,16,0.7,16s0.4-0.1,0.5-0.2l1.9-1.9c0.5,0.1,1.4,0.2,2.6,0.2c2.3,0,5.4-0.5,7.6-2.7
		C17.1,7.6,15.8,1.1,15.7,0.8z M12.3,10.4c-2.8,2.8-7.4,2.3-8.9,2.1c-0.2-1.5-0.6-6.1,2.1-8.9c2.8-2.8,7.4-2.3,8.9-2.1
		C14.7,3,15.1,7.7,12.3,10.4z"/>
	<path class="st0" d="M11.6,3.9L7.9,8.6l-1.6-2c-0.2-0.3-0.7-0.4-1-0.1c-0.3,0.2-0.4,0.7-0.1,1l2.1,2.7c0.1,0.2,0.3,0.3,0.5,0.3
		c0.2,0,0.4-0.1,0.5-0.3l4.2-5.4c0.2-0.3,0.2-0.7-0.1-1C12.2,3.6,11.8,3.6,11.6,3.9z"/>
</g>
</svg>

<?xml version="1.0" encoding="UTF-8" standalone="no"?>
<!-- Generator: Adobe Illustrator 26.1.0, SVG Export Plug-In . SVG Version: 6.00 Build 0)  -->

<svg
   version="1.1"
   id="Calque_1"
   x="0px"
   y="0px"
   viewBox="0 0 300 300"
   xml:space="preserve"
   sodipodi:docname="ecodesign-addon-logo.svg"
   width="300"
   height="300"
   inkscape:version="1.2 (1:1.2.1+202207142221+cd75a1ee6d)"
   inkscape:export-filename="ecodesign-addon-logo-16x16.png"
   inkscape:export-xdpi="5.1199999"
   inkscape:export-ydpi="5.1199999"
   xmlns:inkscape="http://www.inkscape.org/namespaces/inkscape"
   xmlns:sodipodi="http://sodipodi.sourceforge.net/DTD/sodipodi-0.dtd"
   xmlns="http://www.w3.org/2000/svg"
   xmlns:svg="http://www.w3.org/2000/svg"><defs
   id="defs13" /><sodipodi:namedview
   id="namedview11"
   pagecolor="#505050"
   bordercolor="#eeeeee"
   borderopacity="1"
   inkscape:showpageshadow="0"
   inkscape:pageopacity="0"
   inkscape:pagecheckerboard="0"
   inkscape:deskcolor="#505050"
   showgrid="false"
   inkscape:zoom="1.6503906"
   inkscape:cx="89.675741"
   inkscape:cy="186.31953"
   inkscape:window-width="1920"
   inkscape:window-height="1019"
   inkscape:window-x="0"
   inkscape:window-y="0"
   inkscape:window-maximized="1"
   inkscape:current-layer="Calque_1" />
<style
   type="text/css"
   id="style2">
	.st0{fill:#000091;}
</style>
<rect
   style="fill:#ffffff;stroke:none"
   id="rect741"
   width="300"
   height="300"
   x="0"
   y="0"
   rx="27.598309"
   ry="27.598309" /><g
   id="g8"
   transform="matrix(15.606184,0,0,15.606184,25.390151,25.105983)">
	<path
   class="st0"
   d="M 15.7,0.8 C 15.6,0.5 15.4,0.3 15.2,0.3 14.9,0.2 8.4,-1.1 4.6,2.7 1.3,6 1.9,11.4 2.1,12.9 l -1.9,1.9 c -0.3,0.3 -0.3,0.7 0,1 0.1,0.1 0.3,0.2 0.5,0.2 0.2,0 0.4,-0.1 0.5,-0.2 l 1.9,-1.9 c 0.5,0.1 1.4,0.2 2.6,0.2 2.3,0 5.4,-0.5 7.6,-2.7 3.8,-3.8 2.5,-10.3 2.4,-10.6 z m -3.4,9.6 C 9.5,13.2 4.9,12.7 3.4,12.5 3.2,11 2.8,6.4 5.5,3.6 8.3,0.8 12.9,1.3 14.4,1.5 14.7,3 15.1,7.7 12.3,10.4 Z"
   id="path4" />
	<path
   class="st0"
   d="M 11.6,3.9 7.9,8.6 6.3,6.6 C 6.1,6.3 5.6,6.2 5.3,6.5 5,6.7 4.9,7.2 5.2,7.5 l 2.1,2.7 c 0.1,0.2 0.3,0.3 0.5,0.3 0.2,0 0.4,-0.1 0.5,-0.3 L 12.5,4.8 C 12.7,4.5 12.7,4.1 12.4,3.8 12.2,3.6 11.8,3.6 11.6,3.9 Z"
   id="path6" />
</g>
</svg>
